icon-themes/sifr_svg/cmd/lc_extrusionlightingfloater.svg

<svg viewBox="0 0 24 24" xmlns="http://www.w3.org/2000/svg"><path d="m12 1-1.865234 3.2304688a8 8 0 0 1 1.865234-.2304688 8 8 0 0 1 1.865234.2304688zm-7.7773438 3.2226562.9648438 3.6015626a8 8 0 0 1 1.15625-1.4804688 8 8 0 0 1 1.4804688-1.15625zm15.5546878 0-3.601563.9648438a8 8 0 0 1 1.480469 1.15625 8 8 0 0 1 1.15625 1.4804688zm-7.777344.7773438a7 7 0 0 0 -7 7 7 7 0 0 0 7 7 7 7 0 0 0 7-7 7 7 0 0 0 -7-7zm0 2a5 5 0 0 1 5 5 5 5 0 0 1 -5 5 5 5 0 0 1 -5-5 5 5 0 0 1 5-5zm-7.7695312 3.134766-3.2304688 1.865234 3.2304688 1.865234a8 8 0 0 1 -.2304688-1.865234 8 8 0 0 1 .2304688-1.865234zm15.5390622 0a8 8 0 0 1 .230469 1.865234 8 8 0 0 1 -.230469 1.865234l3.230469-1.865234zm-14.582031 6.041015-.9648438 3.601563 3.6015626-.964844a8 8 0 0 1 -1.4804688-1.15625 8 8 0 0 1 -1.15625-1.480469zm13.625 0a8 8 0 0 1 -1.15625 1.480469 8 8 0 0 1 -1.480469 1.15625l3.601563.964844zm-8.677734 3.59375 1.865234 3.230469 1.865234-3.230469a8 8 0 0 1 -1.865234.230469 8 8 0 0 1 -1.865234-.230469z" fill="#555753"/></svg>

<svg xmlns="http://www.w3.org/2000/svg" viewBox="0 0 24 24">
  <path
     style="fill:#555753"
     d="M 12 1 L 10.134766 4.2304688 A 8 8 0 0 1 12 4 A 8 8 0 0 1 13.865234 4.2304688 L 12 1 z M 4.2226562 4.2226562 L 5.1875 7.8242188 A 8 8 0 0 1 6.34375 6.34375 A 8 8 0 0 1 7.8242188 5.1875 L 4.2226562 4.2226562 z M 19.777344 4.2226562 L 16.175781 5.1875 A 8 8 0 0 1 17.65625 6.34375 A 8 8 0 0 1 18.8125 7.8242188 L 19.777344 4.2226562 z M 12 5 A 7 7 0 0 0 5 12 A 7 7 0 0 0 12 19 A 7 7 0 0 0 19 12 A 7 7 0 0 0 12 5 z M 12 7 A 5 5 0 0 1 17 12 A 5 5 0 0 1 12 17 A 5 5 0 0 1 7 12 A 5 5 0 0 1 12 7 z M 4.2304688 10.134766 L 1 12 L 4.2304688 13.865234 A 8 8 0 0 1 4 12 A 8 8 0 0 1 4.2304688 10.134766 z M 19.769531 10.134766 A 8 8 0 0 1 20 12 A 8 8 0 0 1 19.769531 13.865234 L 23 12 L 19.769531 10.134766 z M 5.1875 16.175781 L 4.2226562 19.777344 L 7.8242188 18.8125 A 8 8 0 0 1 6.34375 17.65625 A 8 8 0 0 1 5.1875 16.175781 z M 18.8125 16.175781 A 8 8 0 0 1 17.65625 17.65625 A 8 8 0 0 1 16.175781 18.8125 L 19.777344 19.777344 L 18.8125 16.175781 z M 10.134766 19.769531 L 12 23 L 13.865234 19.769531 A 8 8 0 0 1 12 20 A 8 8 0 0 1 10.134766 19.769531 z "
     />
</svg>
